symbols/web/commute/materialsymbolsrounded/commute_wght600fill1_20px.svg

<svg xmlns="http://www.w3.org/2000/svg" height="20" width="20"><path d="M9.25 17.188q-.458 0-.802-.344-.344-.344-.344-.802v-4.375q0-.063.063-.292l1.145-3.271q.105-.375.438-.583.333-.209.729-.209h6.042q.396 0 .739.209.344.208.448.583l1.125 3.271q0 .021.042.271v4.416q0 .459-.323.792-.323.334-.802.334-.521 0-.823-.323-.302-.323-.302-.761v-.187h-6.25v.187q0 .438-.302.761t-.823.323Zm.958-6.646h6.604l-.562-1.604h-5.479Zm.813 3.354q.354 0 .594-.24.239-.239.239-.594 0-.354-.239-.593-.24-.24-.594-.24t-.594.24q-.239.239-.239.593 0 .355.239.594.24.24.594.24Zm5.021 0q.354 0 .593-.24.24-.239.24-.594 0-.354-.24-.593-.239-.24-.593-.24t-.594.24q-.24.239-.24.593 0 .355.24.594.24.24.594.24ZM2.938 16.583q0-.145.062-.312T3.167 16l.729-.667q-1.167 0-1.99-.864-.823-.865-.823-2.073V5.708q0-1.583 1.323-2.25 1.323-.666 4.49-.666 3.271 0 4.552.646 1.281.645 1.281 2.27v.688h-2.25v-.521H3.375v4.917h3.813v6.416H3.542q-.25 0-.427-.177t-.177-.448Zm1.458-2.937q.416 0 .708-.302t.292-.719q0-.437-.292-.729t-.708-.292q-.438 0-.729.292-.292.292-.292.729 0 .417.292.719.291.302.729.302Z"/></svg>

<svg xmlns="http://www.w3.org/2000/svg" height="20" width="20"><path d="M9.25 17.188Q8.792 17.188 8.448 16.844Q8.104 16.5 8.104 16.042V11.667Q8.104 11.604 8.167 11.375L9.312 8.104Q9.417 7.729 9.75 7.521Q10.083 7.312 10.479 7.312H16.521Q16.917 7.312 17.26 7.521Q17.604 7.729 17.708 8.104L18.833 11.375Q18.833 11.396 18.875 11.646V16.062Q18.875 16.521 18.552 16.854Q18.229 17.188 17.75 17.188Q17.229 17.188 16.927 16.865Q16.625 16.542 16.625 16.104V15.917H10.375V16.104Q10.375 16.542 10.073 16.865Q9.771 17.188 9.25 17.188ZM10.208 10.542H16.812L16.25 8.938H10.771ZM11.021 13.896Q11.375 13.896 11.615 13.656Q11.854 13.417 11.854 13.062Q11.854 12.708 11.615 12.469Q11.375 12.229 11.021 12.229Q10.667 12.229 10.427 12.469Q10.188 12.708 10.188 13.062Q10.188 13.417 10.427 13.656Q10.667 13.896 11.021 13.896ZM16.042 13.896Q16.396 13.896 16.635 13.656Q16.875 13.417 16.875 13.062Q16.875 12.708 16.635 12.469Q16.396 12.229 16.042 12.229Q15.688 12.229 15.448 12.469Q15.208 12.708 15.208 13.062Q15.208 13.417 15.448 13.656Q15.688 13.896 16.042 13.896ZM2.938 16.583Q2.938 16.438 3 16.271Q3.062 16.104 3.167 16L3.896 15.333Q2.729 15.333 1.906 14.469Q1.083 13.604 1.083 12.396V5.708Q1.083 4.125 2.406 3.458Q3.729 2.792 6.896 2.792Q10.167 2.792 11.448 3.438Q12.729 4.083 12.729 5.708V6.396H10.479V5.875H3.375V10.792H7.188V17.208H3.542Q3.292 17.208 3.115 17.031Q2.938 16.854 2.938 16.583ZM4.396 13.646Q4.812 13.646 5.104 13.344Q5.396 13.042 5.396 12.625Q5.396 12.188 5.104 11.896Q4.812 11.604 4.396 11.604Q3.958 11.604 3.667 11.896Q3.375 12.188 3.375 12.625Q3.375 13.042 3.667 13.344Q3.958 13.646 4.396 13.646Z"/></svg>
